assets/img/braze_icons/alert-triangle.svg

<svg fill="none" height="24" viewBox="0 0 24 24" width="24" xmlns="http://www.w3.org/2000/svg"><path clip-rule="evenodd" d="m12.8126 1.66837c-.5173-.23003-1.1079-.23003-1.6252 0-.3996.17765-.6591.49057-.8397.74554-.1776.2507-.36766.57912-.57674.94031l-8.26715 14.27968c-.20991.3625-.40066.6919-.530004.9715-.13145.2841-.274054.666-.228605 1.102.058811.5641.354349 1.0767.813069 1.4102.35449.2577.75649.3257 1.06825.3543.30675.0281.6874.0281 1.10629.0281h16.53429c.4189 0 .7996 0 1.1063-.0281.3118-.0286.7138-.0966 1.0683-.3543.4587-.3335.7542-.8461.813-1.4102.0455-.436-.0971-.8179-.2286-1.102-.1293-.2796-.32-.609-.5299-.9715l-8.2672-14.27971c-.2091-.36118-.3992-.6896-.5768-.94028-.1806-.25497-.4401-.56789-.8396-.74554zm.1874 7.33163c0-.55228-.4477-1-1-1s-1 .44772-1 1v4c0 .5523.4477 1 1 1s1-.4477 1-1zm-1 7c-.5523 0-1 .4477-1 1s.4477 1 1 1h.01c.5523 0 1-.4477 1-1s-.4477-1-1-1z" fill="#801ed7" fill-rule="evenodd"/></svg>

<svg width="24" height="24" viewBox="0 0 24 24" fill="none" xmlns="http://www.w3.org/2000/svg">
<path fill-rule="evenodd" clip-rule="evenodd" d="M12.8126 1.66837C12.2953 1.43834 11.7047 1.43834 11.1874 1.66837C10.7878 1.84602 10.5283 2.15894 10.3477 2.41391C10.1701 2.66461 9.98004 2.99303 9.77096 3.35422L1.50381 17.6339C1.2939 17.9964 1.10315 18.3258 0.973806 18.6054C0.842356 18.8895 0.699752 19.2714 0.745201 19.7074C0.804012 20.2715 1.09955 20.7841 1.55827 21.1176C1.91276 21.3753 2.31476 21.4433 2.62652 21.4719C2.93327 21.5 3.31392 21.5 3.73281 21.5H20.2671C20.686 21.5 21.0667 21.5 21.3734 21.4719C21.6852 21.4433 22.0872 21.3753 22.4417 21.1176C22.9004 20.7841 23.1959 20.2715 23.2547 19.7074C23.3002 19.2714 23.1576 18.8895 23.0261 18.6054C22.8968 18.3258 22.7061 17.9964 22.4962 17.6339L14.229 3.35419C14.0199 2.99301 13.8298 2.66459 13.6522 2.41391C13.4716 2.15894 13.2121 1.84602 12.8126 1.66837ZM13 9C13 8.44772 12.5523 8 12 8C11.4477 8 11 8.44772 11 9V13C11 13.5523 11.4477 14 12 14C12.5523 14 13 13.5523 13 13V9ZM12 16C11.4477 16 11 16.4477 11 17C11 17.5523 11.4477 18 12 18H12.01C12.5623 18 13.01 17.5523 13.01 17C13.01 16.4477 12.5623 16 12.01 16H12Z" fill="#801ED7"/>
</svg>
